X: 4
T: The Maid In The Cherry Tree
R: reel
M: 4/4
L: 1/8
K: Amix
eAAF ~G2 (3Bcd|eAAf (3gfe fd|eAAF ~G2 (3Bcd|edgd BA (3Bcd:|
ea~a2 bgag|eaaf gfed|ea~a2 bgag|edgd BA (3Bcd|
ea~a2 bgag|eaaf ~g3a|bgaf gfed|edgd BA (3Bcd||


Tune 5195	Setting 17466

